X:91
T:91. Classic Hymn (4ths CW) — block chord both hands
T:Homophonic hymn texture, full 7-mode cycle
C:RH 1358 + LH 135, both whole-note struck together
M:4/4
L:1/4
Q:1/4=72
%%score {V1 V2}
V:V1 clef=treble
V:V2 clef=bass
K:C
[V:V1] "C" [cegc']4 | "F" [fac'f']4 | "B°" [Bdfb]4 | "Em" [egbe']4 | "Am" [ac'e'a']4 | "Dm" [dfad']4 | "G" [gbd'g']4 | "C" [cegc']4 |]
[V:V2] "_8"[C,E,G,]4 | "_8"[F,A,C]4 | "_8"[B,DF]4 | "_8"[E,G,B,]4 | "_8"[A,CE]4 | "_8"[D,F,A,]4 | "_8"[G,B,D]4 | "_8"[C,E,G,]4 |]

